repo/img/stop.svg

<svg xmlns="http://www.w3.org/2000/svg" width="90" height="90" viewBox="0 0 90 90"><path d="M45 7.207C24.16 7.207 7.207 24.16 7.207 45 7.207 65.84 24.16 82.796 45 82.796c20.84 0 37.796-16.955 37.796-37.796C82.796 24.16 65.84 7.207 45 7.207zm16.5 52.418c0 1.33-.542 1.874-1.877 1.874h-29.25c-1.33 0-1.873-.546-1.873-1.878v-29.25c0-1.33.545-1.873 1.877-1.873h29.25c1.33 0 1.873.544 1.873 1.878v29.247zM45 0C20.147 0 0 20.145 0 45 0 69.85 20.147 90 45 90c24.854 0 45-20.148 45-45C90 20.145 69.854 0 45 0zm0 86.184C22.292 86.184 3.816 67.71 3.816 45 3.816 22.292 22.292 3.816 45 3.816 67.71 3.816 86.184 22.29 86.184 45c0 22.71-18.475 41.184-41.184 41.184z"/></svg>

<?xml version="1.0" encoding="utf-8"?>
<!-- Generator: Adobe Illustrator 16.0.3, SVG Export Plug-In . SVG Version: 6.00 Build 0)  -->
<!DOCTYPE svg PUBLIC "-//W3C//DTD SVG 1.1//EN" "http://www.w3.org/Graphics/SVG/1.1/DTD/svg11.dtd">
<svg version="1.1" id="Layer_1" xmlns="http://www.w3.org/2000/svg" xmlns:xlink="http://www.w3.org/1999/xlink" x="0px" y="0px"
	 width="90px" height="90px" viewBox="0 0 90 90" enable-background="new 0 0 90 90" xml:space="preserve">
<g>
	<path d="M45,7.207C24.161,7.207,7.207,24.161,7.207,45c0,20.841,16.954,37.796,37.793,37.796c20.841,0,37.796-16.955,37.796-37.796
		C82.796,24.161,65.841,7.207,45,7.207z M61.5,59.625c0,1.33-0.542,1.874-1.877,1.874c-4.891,0-9.779,0-14.67,0
		c-4.86,0-9.719,0-14.579,0c-1.332,0-1.874-0.545-1.874-1.877c0-9.748,0-19.499,0-29.249c0-1.332,0.545-1.874,1.877-1.874
		c9.75,0,19.499,0,29.251,0c1.33,0,1.872,0.545,1.872,1.879C61.5,40.126,61.5,49.875,61.5,59.625z"/>
	<path d="M45-0.001c-24.853,0-45,20.147-45,45c0,24.853,20.147,45,45,45c24.854,0,45-20.147,45-45C90,20.146,69.854-0.001,45-0.001z
		 M45,86.184C22.292,86.184,3.816,67.709,3.816,45C3.816,22.292,22.292,3.816,45,3.816c22.709,0,41.184,18.475,41.184,41.184
		C86.184,67.709,67.709,86.184,45,86.184z"/>
</g>
</svg>
